X:3
T:Peeler's Jacket [2], The
M:C
L:1/8
R:Reel
S:Stanford/Petrie, No. 893  (1905)
Z:AK/Fiddler’s Companion
K:G
DGBG DGBG|DGBG c2 Bc|dggf d2g2|fdcA BGAF|
DGBG DGBG|DGBG c2Bc|dggf d2g2|fdcA BG G2||
g2gf d2(3def|g2 ga bgaf|g2gf d2g2|fdcA BG G2|
g2gf d2(3def|g2 ga bgaf|gfgb afge|fdcA BG G2||

